icons/outline/sun-high.svg

<!--
tags: [temperature, hot, wheater, thermometer, forecast]
category: Weather
version: "1.73"
unicode: "f236"
-->
<svg
  xmlns="http://www.w3.org/2000/svg"
  width="24"
  height="24"
  viewBox="0 0 24 24"
  fill="none"
  stroke="currentColor"
  stroke-width="2"
  stroke-linecap="round"
  stroke-linejoin="round"
>
  <path d="M14.828 14.828a4 4 0 1 0 -5.656 -5.656a4 4 0 0 0 5.656 5.656zm-8.485 2.829l-1.414 1.414m1.414 -12.728l-1.414 -1.414m12.728 1.414l1.414 -1.414m-1.414 12.728l1.414 1.414m-15.071 -7.071h-2m10 -8v-2m8 10h2m-10 8v2" />
</svg>

<!--
tags: [temperature, hot, wheater, thermometer, forecast]
category: Weather
version: "1.73"
unicode: "f236"
-->
<svg
  xmlns="http://www.w3.org/2000/svg"
  width="24"
  height="24"
  viewBox="0 0 24 24"
  fill="none"
  stroke="currentColor"
  stroke-width="2"
  stroke-linecap="round"
  stroke-linejoin="round"
>
    <path d="M14.828 14.828a4 4 0 1 0 -5.656 -5.656a4 4 0 0 0 5.656 5.656zM6.343 17.657l-1.414 1.414M6.343 6.343l-1.414 -1.414M17.657 6.343l1.414 -1.414M17.657 17.657l1.414 1.414M4 12h-2M12 4v-2M20 12h2M12 20v2" />
</svg>
